X: 18880
T: In Memory Of Coleman
R: reel
M: 4/4
K: Gdorian
|:DGBd cBGF|DFB,F GFDF|GABc dfga|(3bag af dgga|
bgaf gfdc|(3Bcd BG FDCD|FGBd cABc|dgdc BG G2:|
B3 d g3 f|e c3 A F3|Gdga fdcA|FGAc BGGA|
B2~B2 gBfB|FBfB A~F3|GABc dgag|fdcA G4:|

